packages/core/assets/Icons/arrow_alt_down_right.svg

<svg viewBox="0 0 20 20" fill="none" xmlns="http://www.w3.org/2000/svg">
<path d="M13 14.1667L3.91665 5.08333C3.76387 4.93055 3.68748 4.73611 3.68748 4.5C3.68748 4.26389 3.76387 4.06944 3.91665 3.91667C4.06942 3.76389 4.26387 3.6875 4.49998 3.6875C4.73609 3.6875 4.93054 3.76389 5.08331 3.91667L14.1666 13L14.1666 8.33333C14.1666 8.09722 14.2465 7.89931 14.4062 7.73958C14.566 7.57986 14.7639 7.5 15 7.5C15.2361 7.5 15.434 7.57986 15.5937 7.73958C15.7535 7.89931 15.8333 8.09722 15.8333 8.33333L15.8333 15C15.8333 15.2361 15.7535 15.434 15.5937 15.5937C15.434 15.7535 15.2361 15.8333 15 15.8333L8.33331 15.8333C8.0972 15.8333 7.89929 15.7535 7.73956 15.5937C7.57984 15.434 7.49998 15.2361 7.49998 15C7.49998 14.7639 7.57984 14.566 7.73956 14.4062C7.89929 14.2465 8.0972 14.1667 8.33331 14.1667L13 14.1667Z" fill="currentColor"/>
</svg>

<svg xmlns="http://www.w3.org/2000/svg" width="20" height="20" fill="none" viewBox="0 0 20 20">
  <path fill="#201F1F" d="M13 14.167 3.917 5.083a.79.79 0 0 1-.23-.583.79.79 0 0 1 .23-.583.79.79 0 0 1 .583-.23.79.79 0 0 1 .583.23L14.167 13V8.333c0-.236.08-.434.24-.593.159-.16.357-.24.593-.24s.434.08.594.24c.16.16.24.357.24.593V15c0 .236-.08.434-.24.594a.806.806 0 0 1-.594.24H8.333a.806.806 0 0 1-.593-.24A.806.806 0 0 1 7.5 15c0-.236.08-.434.24-.594.16-.16.357-.24.593-.24H13Z"/>
</svg>
